X:722
T:Arran Lilt
B:Kerr's Merry Melodies Bk.1
N:Slightly changed by me
Z:Nigel Gatherer
M:2/4
L:1/8
K:G
d>B   G>B   | BB/A/ Bd | ee/d/ gB    | A/G/A/B/ A2  |
d>B   G>B   | BB/A/ Bd | ee/d/ gB    | A/G/A/B/ G2 ||
gg/e/ ff/d/ | ee/d/ Bd | gg/e/ ff/d/ | ee/d/    Bd  |
gg/e/ ff/d/ | ee/d/ Bd | ee/d/ gB    | A/G/A/B/ G2 ||
